src/assets/outline/Edit2.svg

<svg width="24" height="24" viewBox="0 0 24 24"  xmlns="http://www.w3.org/2000/svg">
<path d="M5.53999 19.5196C4.92999 19.5196 4.35999 19.3096 3.94999 18.9196C3.42999 18.4296 3.17999 17.6896 3.26999 16.8896L3.63999 13.6496C3.70999 13.0396 4.07999 12.2296 4.50999 11.7896L12.72 3.09956C14.77 0.929561 16.91 0.869561 19.08 2.91956C21.25 4.96956 21.31 7.10956 19.26 9.27956L11.05 17.9696C10.63 18.4196 9.84999 18.8396 9.23999 18.9396L6.01999 19.4896C5.84999 19.4996 5.69999 19.5196 5.53999 19.5196ZM15.93 2.90956C15.16 2.90956 14.49 3.38956 13.81 4.10956L5.59999 12.8096C5.39999 13.0196 5.16999 13.5196 5.12999 13.8096L4.75999 17.0496C4.71999 17.3796 4.79999 17.6496 4.97999 17.8196C5.15999 17.9896 5.42999 18.0496 5.75999 17.9996L8.97999 17.4496C9.26999 17.3996 9.74999 17.1396 9.94999 16.9296L18.16 8.23956C19.4 6.91956 19.85 5.69956 18.04 3.99956C17.24 3.22956 16.55 2.90956 15.93 2.90956Z" />
<path d="M17.3399 10.9498C17.3199 10.9498 17.2899 10.9498 17.2699 10.9498C14.1499 10.6398 11.6399 8.26985 11.1599 5.16985C11.0999 4.75985 11.3799 4.37985 11.7899 4.30985C12.1999 4.24985 12.5799 4.52985 12.6499 4.93985C13.0299 7.35985 14.9899 9.21985 17.4299 9.45985C17.8399 9.49985 18.1399 9.86985 18.0999 10.2798C18.0499 10.6598 17.7199 10.9498 17.3399 10.9498Z" />
<path d="M21 22.75H3C2.59 22.75 2.25 22.41 2.25 22C2.25 21.59 2.59 21.25 3 21.25H21C21.41 21.25 21.75 21.59 21.75 22C21.75 22.41 21.41 22.75 21 22.75Z" />
</svg>

<?xml version="1.0" encoding="UTF-8"?>
<svg width="24" height="24" viewBox="0 0 24 24" xmlns="http://www.w3.org/2000/svg">
 <path d="m5.54 19.52c-0.61 0-1.18-0.21-1.59-0.6-0.52-0.49-0.77-1.23-0.68-2.03l0.37-3.24c0.07-0.61 0.44-1.42 0.87-1.86l8.21-8.69c2.05-2.17 4.19-2.23 6.36-0.18 2.17 2.05 2.23 4.19 0.18 6.36l-8.21 8.69c-0.42 0.45-1.2 0.87-1.81 0.97l-3.22 0.55c-0.17 0.01-0.32 0.03-0.48 0.03zm10.39-16.61c-0.77 0-1.44 0.48-2.12 1.2l-8.21 8.7c-0.2 0.21-0.43 0.71-0.47 1l-0.37 3.24c-0.04 0.33 0.04 0.6 0.22 0.77s0.45 0.23 0.78 0.18l3.22-0.55c0.29-0.05 0.77-0.31 0.97-0.52l8.21-8.69c1.24-1.32 1.69-2.54-0.12-4.24-0.8-0.77-1.49-1.09-2.11-1.09z"/>
 <path d="m17.34 10.95h-0.07c-3.12-0.31-5.63-2.68-6.11-5.78-0.06-0.41 0.22-0.79 0.63-0.86 0.41-0.06 0.79 0.22 0.86 0.63 0.38 2.42 2.34 4.28 4.78 4.52 0.41 0.04 0.71 0.41 0.67 0.81995-0.05 0.38-0.38 0.67-0.76 0.67z"/>
 <path d="m21 22.75h-18c-0.41 0-0.75-0.34-0.75-0.75s0.34-0.75 0.75-0.75h18c0.41 0 0.75 0.34 0.75 0.75s-0.34 0.75-0.75 0.75z"/>
</svg>
